src/img/icons/files.svg

<?xml version="1.0" encoding="UTF-8"?>
<svg width="21px" height="20px" viewBox="0 0 21 20" version="1.1" xmlns="http://www.w3.org/2000/svg" xmlns:xlink="http://www.w3.org/1999/xlink">
    <!-- Generator: Sketch 49.3 (51167) - http://www.bohemiancoding.com/sketch -->
    <title>gene</title>
    <desc>Created with Sketch.</desc>
    <defs></defs>
    <g id="design" stroke="none" stroke-width="1" fill="none" fill-rule="evenodd" opacity="0.696105072">
        <g id="1-5-2-subject-cell-count" transform="translate(-196.000000, -176.000000)" fill="#000000">
            <g id="Group-14" transform="translate(187.000000, 176.000000)">
                <g id="gene" transform="translate(9.000000, 0.000000)">
                    <g id="dna">
                        <path d="M9.64269126,4.7147541 C9.65942623,4.7147541 9.6764959,4.71803279 9.69624317,4.71803279 C9.8602459,4.71803279 10.0008197,4.60032787 10.0275956,4.43934426 L10.0309426,4.41934426 C10.0610656,4.21967213 10.1045765,4.01934426 10.1614754,3.82918033 C10.2116803,3.65540984 10.1082582,3.47508197 9.92752049,3.42622951 C9.75648907,3.37704918 9.56604508,3.48196721 9.51584016,3.65213115 C9.45559426,3.86852459 9.40538934,4.09803279 9.36522541,4.33737705 C9.36187842,4.35409836 9.36187842,4.37344262 9.36187842,4.38983607 C9.36154372,4.54754098 9.48203552,4.68852459 9.64269126,4.7147541 Z" id="Shape" fill-rule="nonzero"></path>
                        <path d="M13.7394126,0.836065574 C13.7561475,0.836065574 13.7762295,0.836065574 13.7963115,0.832786885 C14.0038251,0.796721311 14.2217145,0.770491803 14.4389344,0.750819672 C14.6230191,0.737704918 14.7602459,0.57704918 14.7468579,0.396721311 C14.730123,0.219672131 14.5728142,0.0819672131 14.3853825,0.0983606557 C14.1380396,0.118032787 13.90375,0.147540984 13.6825137,0.186885246 C13.5218579,0.213114754 13.4047131,0.347540984 13.4047131,0.505245902 C13.4047131,0.524918033 13.4080601,0.544590164 13.4114071,0.564262295 C13.4381831,0.721311475 13.5754098,0.836065574 13.7394126,0.836065574 Z" id="Shape" fill-rule="nonzero"></path>
                        <path d="M17.7122951,1.00327869 C17.9131148,1.04590164 18.1236407,1.09213115 18.358265,1.15081967 C18.385041,1.15409836 18.4118169,1.15770492 18.4419399,1.15770492 C18.5925546,1.15770492 18.7267691,1.0557377 18.7632514,0.911803279 C18.810444,0.734754098 18.6999932,0.557704918 18.5222678,0.514754098 C18.2946721,0.459016393 18.0670765,0.406885246 17.8495219,0.360655738 C17.6687842,0.324918033 17.4880464,0.442622951 17.4512295,0.613442623 C17.4478825,0.636065574 17.4445355,0.659344262 17.4445355,0.682295082 C17.4448702,0.836065574 17.555321,0.970491803 17.7122951,1.00327869 Z" id="Shape" fill-rule="nonzero"></path>
                        <path d="M6.94501366,18.5967213 C6.74385929,18.6229508 6.53333333,18.6393443 6.29870902,18.652459 C6.11830601,18.6593443 5.97739754,18.8032787 5.97739754,18.9803279 C5.97739754,18.9836066 5.97739754,18.9901639 5.97739754,18.9967213 C5.98743852,19.1704918 6.13504098,19.3081967 6.31209699,19.3081967 C6.31912568,19.3081967 6.32548497,19.3081967 6.32916667,19.3081967 C6.56680328,19.295082 6.8007582,19.2754098 7.03203552,19.2491803 C7.21277322,19.2262295 7.34330601,19.0622951 7.31987705,18.8819672 C7.29644809,18.704918 7.12909836,18.5770492 6.94501366,18.5967213 Z" id="Shape" fill-rule="nonzero"></path>
                        <path d="M11.664276,12.042623 C11.6144057,11.8229508 11.5605191,11.6 11.4969262,11.3803279 C11.4500683,11.2095082 11.2592896,11.1013115 11.0885929,11.147541 C10.9078552,11.1963934 10.8040984,11.3770492 10.8509563,11.5504918 C10.9078552,11.747541 10.9580601,11.9537705 11.004918,12.1603279 C11.004918,12.1668852 11.004918,12.1734426 11.008265,12.18 L11.011612,12.1931148 C11.048429,12.3344262 11.1826434,12.4390164 11.3366052,12.4390164 C11.3596995,12.4390164 11.3834631,12.4357377 11.4068921,12.4295082 C11.5608538,12.3963934 11.6713046,12.2619672 11.6713046,12.1081967 C11.6713046,12.0918033 11.667623,12.0786885 11.664276,12.0622951 L11.667623,12.0622951 L11.664276,12.042623 Z" id="Shape" fill-rule="nonzero"></path>
                        <path d="M11.473832,15.0852459 C11.2964413,15.042623 11.1157036,15.1540984 11.0721926,15.3278689 C11.0219877,15.5344262 10.9617418,15.7308197 10.8881079,15.9213115 C10.8710383,15.957377 10.864679,16 10.864679,16.0393443 C10.868026,16.1770492 10.9517008,16.295082 11.0818989,16.3442623 C11.1187158,16.357377 11.1588798,16.3642623 11.1993784,16.3642623 C11.3399522,16.3642623 11.463791,16.2786885 11.5136612,16.1540984 C11.5973361,15.9377049 11.667623,15.7114754 11.7248566,15.4786885 C11.7646858,15.3016393 11.654235,15.1245902 11.473832,15.0852459 Z" id="Shape" fill-rule="nonzero"></path>
                        <path d="M10.0814822,8.65245902 C10.1149522,8.65245902 10.1447404,8.64918033 10.1748634,8.63934426 C10.3191189,8.59672131 10.419194,8.46885246 10.4161817,8.32131148 C10.4161817,8.29180328 10.4125,8.26229508 10.4027937,8.23245902 C10.3392008,8.00655738 10.2823019,7.8 10.235444,7.60655738 C10.1952801,7.43278689 10.0111954,7.32131148 9.83380464,7.36393443 C9.65306694,7.40327869 9.54261612,7.58032787 9.58278005,7.75737705 C9.63298497,7.96393443 9.69323087,8.18688525 9.76017077,8.41639344 C9.8003347,8.55409836 9.93387978,8.65245902 10.0814822,8.65245902 Z" id="Shape" fill-rule="nonzero"></path>
                        <path d="M20.0819672,1.63934426 C20.2212022,1.63934426 20.3510656,1.55377049 20.3985929,1.41770492 C20.4585041,1.24655738 20.365123,1.06 20.1904098,1.00098361 C20.0819672,0.964918033 19.974194,0.929508197 19.8670902,0.895409836 C19.865082,0.894754098 19.8627391,0.895409836 19.8607309,0.894754098 C19.8553757,0.892786885 19.8503552,0.890819672 19.8443306,0.888852459 C19.7673497,0.86557377 19.6886954,0.875081967 19.6180738,0.903278689 C19.5477869,0.678032787 19.4748224,0.451803279 19.3944945,0.221967213 C19.3342486,0.0508196721 19.1441393,-0.04 18.9690915,0.0180327869 C18.7943784,0.0770491803 18.7009973,0.263278689 18.7609085,0.434754098 C19.2100751,1.71901639 19.4969126,2.92196721 19.6257719,4.01803279 L16.3279781,0.787540984 C16.3534153,0.790163934 16.3778484,0.791147541 16.4032855,0.793770492 C16.4166735,0.79704918 16.4300615,0.79704918 16.4401025,0.79704918 C16.6107992,0.79704918 16.7543852,0.672459016 16.7748019,0.505245902 C16.7851776,0.416393443 16.7584016,0.331147541 16.7015027,0.262295082 C16.6482855,0.193442623 16.5679577,0.150819672 16.4809358,0.140983607 C16.2366052,0.114754098 16.0019809,0.0950819672 15.7847609,0.0852459016 C15.7275273,0.0832786885 15.6746448,0.0990163934 15.6257787,0.122295082 C15.4979235,0.0501639344 15.3342555,0.062295082 15.2248087,0.169508197 C15.0939413,0.297704918 15.0939413,0.504918033 15.2248087,0.633114754 L19.6980669,5.01508197 C19.7241735,5.94262295 19.6207514,6.77508197 19.3881352,7.49377049 L12.7497063,0.991147541 C12.7804986,0.91442623 12.7831762,0.826229508 12.7487022,0.744262295 C12.6784153,0.583934426 12.4775956,0.501967213 12.3102459,0.567213115 C12.0856626,0.659016393 11.8684426,0.767213115 11.6639413,0.881967213 C11.5601844,0.941311475 11.4965915,1.0495082 11.4965915,1.16721311 C11.4965915,1.22655738 11.5133265,1.28229508 11.5437842,1.33114754 C11.6040301,1.4295082 11.7144809,1.49180328 11.831291,1.49180328 C11.8918716,1.49180328 11.9517828,1.47868852 12.0019877,1.44918033 C12.0582172,1.41704918 12.117459,1.38721311 12.1760314,1.35672131 L19.120041,8.15868852 C18.8981352,8.60885246 18.6163183,9.00262295 18.2682309,9.32721311 C18.1313388,9.45508197 17.9817281,9.56819672 17.8267623,9.67442623 L10.6839413,2.67639344 C10.7897063,2.51639344 10.909194,2.36196721 11.038388,2.21967213 C11.1588798,2.08196721 11.1488388,1.87540984 11.011612,1.75409836 C10.8777322,1.63934426 10.6534836,1.65245902 10.5363388,1.78360656 C10.3756831,1.96065574 10.2284153,2.15409836 10.0978825,2.35409836 C10.0721107,2.39639344 10.0597268,2.44163934 10.0533675,2.48786885 C10.0466735,2.49344262 10.038306,2.4957377 10.0319467,2.50163934 C9.90107923,2.62983607 9.90107923,2.83704918 10.0319467,2.9652459 L17.2269809,10.0137705 C16.5472063,10.3222951 15.74125,10.4668852 14.8312022,10.4491803 L9.94860656,5.66590164 C9.9231694,5.50229508 9.78058743,5.36885246 9.60922131,5.38688525 C9.42513661,5.39377049 9.28121585,5.5442623 9.28790984,5.72459016 C9.29795082,5.9504918 9.31468579,6.18032787 9.34146175,6.41311475 C9.36154372,6.57704918 9.50178279,6.70163934 9.67247951,6.70163934 C9.68586749,6.70163934 9.69925546,6.70163934 9.71264344,6.70163934 C9.80401639,6.69114754 9.88066257,6.64459016 9.93387978,6.57901639 L13.7989891,10.3652459 C12.8993169,10.2403279 11.9189822,9.97934426 10.8720423,9.58065574 C10.8569809,9.54262295 10.84125,9.50360656 10.8271926,9.46557377 C10.7639344,9.30163934 10.5627801,9.21278689 10.3954303,9.27540984 C10.3472336,9.29442623 10.306735,9.3242623 10.2722609,9.36 C6.87305328,8.14098361 4.09002732,8.32622951 2.40213798,9.90032787 C1.23437158,10.9898361 0.680443989,12.6868852 0.744706284,14.7908197 C0.743367486,14.8085246 0.744371585,14.824918 0.746045082,14.842623 C0.779515027,15.787541 0.933811475,16.8118033 1.21830601,17.9032787 C1.18282787,17.8695082 1.14165984,17.8413115 1.09145492,17.8252459 C0.987363388,17.7921311 0.883271858,17.7577049 0.77784153,17.722623 C0.602793716,17.6645902 0.412684426,17.7554098 0.352438525,17.9265574 C0.292527322,18.0977049 0.38590847,18.2842623 0.560621585,18.3432787 C0.669398907,18.3796721 0.777172131,18.4147541 0.884275956,18.4491803 C0.919084699,18.46 0.953558743,18.4652459 0.988032787,18.4652459 C1.12927596,18.4652459 1.26014344,18.3770492 1.30633197,18.2390164 C1.30834016,18.2331148 1.30666667,18.227541 1.30834016,18.2216393 C1.42079918,18.6242623 1.54530738,19.032459 1.69157104,19.4508197 C1.73943306,19.5865574 1.86896175,19.6721311 2.00819672,19.6721311 C2.04400956,19.6721311 2.0808265,19.6662295 2.11663934,19.6544262 C2.29135246,19.5954098 2.38473361,19.4091803 2.3248224,19.2377049 C2.27562158,19.0967213 2.23278005,18.9593443 2.18759563,18.8203279 C2.19428962,18.8229508 2.19897541,18.8278689 2.2056694,18.8295082 L2.22909836,18.8327869 C2.45,18.8885246 2.67090164,18.9377049 2.8784153,18.9836066 C2.90184426,18.9872131 2.92560792,18.9904918 2.94870219,18.9904918 C3.10634563,18.9904918 3.2432377,18.8822951 3.27670765,18.7314754 C3.29344262,18.6462295 3.28005464,18.5577049 3.22951503,18.4855738 C3.1829918,18.4131148 3.10634563,18.3606557 3.01898907,18.3409836 C2.80176913,18.295082 2.58387978,18.2459016 2.37301913,18.1937705 C2.24181694,18.1596721 2.10793716,18.2108197 2.02760929,18.3095082 C1.75081284,17.3763934 1.56471995,16.4908197 1.4720082,15.6665574 L4.44112705,18.575082 C4.40564891,18.5708197 4.36983607,18.5691803 4.33469262,18.5642623 L4.33101093,18.5806557 L4.32766393,18.5642623 C4.14357923,18.5442623 3.97622951,18.672459 3.95280055,18.8495082 C3.94945355,18.862623 3.94945355,18.8754098 3.94945355,18.8921311 C3.94945355,19.0560656 4.07663934,19.1937705 4.24398907,19.2163934 C4.47827869,19.2462295 4.70922131,19.2688525 4.93380464,19.2852459 C4.94351093,19.2852459 4.95053962,19.2852459 4.9602459,19.2852459 C5.0228347,19.2852459 5.07839481,19.2639344 5.12859973,19.2340984 C5.18683743,19.2754098 5.25277322,19.3019672 5.32172131,19.3019672 C5.40740437,19.3019672 5.49308743,19.2698361 5.55835383,19.2059016 C5.68922131,19.0777049 5.68922131,18.8704918 5.55835383,18.7422951 L1.40540301,14.6740984 C1.38498634,13.7544262 1.49409836,12.9272131 1.73140027,12.2111475 L8.06625683,18.4167213 C8.01103142,18.4760656 7.97588798,18.5518033 7.97588798,18.6360656 C7.97588798,18.6688525 7.97923497,18.704918 7.99262295,18.7409836 C8.03613388,18.875082 8.16331967,18.9639344 8.31058743,18.9639344 C8.34706967,18.9639344 8.38087432,18.9606557 8.41434426,18.947541 L8.43476093,18.9406557 C8.66235656,18.8655738 8.8799112,18.7803279 9.08073087,18.6881967 C9.2480806,18.6095082 9.32171448,18.4160656 9.24105191,18.2521311 C9.16741803,18.0947541 8.95990437,18.0193443 8.79623634,18.0947541 C8.77113388,18.1065574 8.74402322,18.1163934 8.71825137,18.1278689 L2.00217213,11.5491803 C2.22742486,11.0980328 2.5125888,10.702623 2.86402322,10.3747541 C2.9982377,10.2495082 3.14416667,10.1380328 3.29478142,10.0331148 L10.334515,16.9291803 C10.3127596,16.944918 10.2889959,16.9586885 10.2715915,16.98 C10.1410587,17.1370492 9.99747268,17.284918 9.84351093,17.422623 C9.77322404,17.4816393 9.73306011,17.5701639 9.73306011,17.6652459 C9.73306011,17.7439344 9.76318306,17.8222951 9.82008197,17.884918 C9.88032787,17.9537705 9.97069672,17.9931148 10.0677596,17.9931148 C10.1514344,17.9931148 10.2314276,17.9636066 10.2920082,17.9111475 L10.3221311,17.8816393 C10.4928279,17.7272131 10.6498019,17.5632787 10.7940574,17.3898361 C10.8402459,17.3308197 10.8609973,17.2590164 10.8609973,17.1859016 C10.9088593,17.1704918 10.9543784,17.1472131 10.9921995,17.1098361 C11.1230669,16.9816393 11.1230669,16.7744262 10.9921995,16.6462295 L3.88887295,9.68819672 C4.56195355,9.37278689 5.35753415,9.21901639 6.25252049,9.22098361 L11.2191257,14.0862295 L11.2191257,14.0918033 C11.2228074,14.2688525 11.3663934,14.4131148 11.5504781,14.4131148 L11.5538251,14.4131148 C11.7345628,14.4131148 11.8851776,14.2688525 11.8885246,14.0918033 C11.8885246,14.0622951 11.8885246,14.0298361 11.8885246,14.0003279 C11.8885246,13.9845902 11.8868511,13.9678689 11.8865164,13.9521311 C11.8865164,13.9498361 11.8861817,13.947541 11.8861817,13.9452459 C11.8851776,13.7659016 11.8801571,13.584918 11.8650956,13.4003279 C11.8517077,13.2196721 11.6977459,13.0819672 11.5069672,13.095082 C11.4162637,13.1019672 11.3362705,13.1442623 11.2760246,13.2101639 C11.2753552,13.2111475 11.2750205,13.212459 11.2743511,13.2131148 L7.26565574,9.28622951 C8.21252049,9.40163934 9.2490847,9.66918033 10.3582787,10.0914754 C10.3867281,10.164918 10.4145082,10.2370492 10.4459699,10.3147541 C10.4928279,10.442623 10.6200137,10.5311475 10.7602527,10.5311475 C10.7970697,10.5311475 10.8372336,10.5242623 10.8743852,10.5081967 C10.9547131,10.48 11.0162978,10.4203279 11.0544536,10.3478689 C12.3631284,10.8085246 13.5757445,11.0583607 14.6661954,11.0990164 C14.6748975,11.0996721 14.6829303,11.1039344 14.6916325,11.1039344 C14.6963183,11.1039344 14.7006694,11.1016393 14.7053552,11.1013115 C16.3681421,11.1560656 17.7437568,10.7229508 18.7301161,9.80196721 C19.191332,9.37180328 19.5528074,8.84163934 19.8198975,8.22885246 C19.824918,8.21868852 19.8302732,8.2095082 19.8339549,8.19901639 C20.2252186,7.28557377 20.3989276,6.18327869 20.358429,4.9357377 C20.3657923,4.89344262 20.3647883,4.85180328 20.355082,4.81016393 C20.3112363,3.81442623 20.1301639,2.72754098 19.8121995,1.56918033 C19.8657514,1.58688525 19.9189686,1.60393443 19.9731899,1.62196721 C20.0096721,1.63377049 20.0461544,1.63934426 20.0819672,1.63934426 Z" id="Shape" fill-rule="nonzero"></path>
                    </g>
                </g>
            </g>
        </g>
    </g>
</svg>

<svg width="21" height="20" xmlns="http://www.w3.org/2000/svg"><g opacity=".696"><path d="M9.643 4.715c.016 0 .033.003.053.003a.335.335 0 00.332-.279l.003-.02c.03-.2.074-.4.13-.59a.325.325 0 00-.233-.403.34.34 0 00-.412.226c-.06.217-.11.446-.15.685-.004.017-.004.036-.004.053 0 .158.12.299.28.325zM13.74.836c.016 0 .036 0 .056-.003.208-.036.426-.063.643-.082a.332.332 0 00.308-.354.332.332 0 00-.362-.299c-.247.02-.481.05-.702.089a.326.326 0 00-.278.318.33.33 0 00.335.33zm3.972.167c.201.043.412.09.646.148.027.003.054.007.084.007.15 0 .285-.102.321-.246a.324.324 0 00-.24-.397A22.595 22.595 0 0017.85.36a.342.342 0 00-.399.252.332.332 0 00.261.39zM6.945 18.597a8.79 8.79 0 01-.646.055.33.33 0 00-.322.328v.017c.01.173.158.311.335.311h.017c.238-.013.472-.033.703-.059a.33.33 0 00.288-.367.339.339 0 00-.375-.285zm4.719-6.554a11.48 11.48 0 00-.167-.663.342.342 0 00-.408-.232.33.33 0 00-.238.402 10.933 10.933 0 01.157.63l.004.013a.336.336 0 00.325.246.275.275 0 00.07-.01.332.332 0 00.264-.32.191.191 0 00-.007-.047h.004l-.004-.02zm-.19 3.042a.336.336 0 00-.402.243 4.65 4.65 0 01-.184.593.281.281 0 00-.023.118.331.331 0 00.334.325.338.338 0 00.315-.21 5.46 5.46 0 00.21-.675.328.328 0 00-.25-.394zm-1.393-6.433a.328.328 0 00.321-.42c-.063-.225-.12-.432-.167-.625a.335.335 0 00-.401-.243.328.328 0 00-.251.393c.05.207.11.43.177.66.04.137.174.235.321.235z"/><path d="M20.082 1.64a.327.327 0 00.108-.638 26.511 26.511 0 00-.323-.107h-.006l-.017-.006a.34.34 0 00-.226.014c-.07-.225-.143-.451-.224-.681a.338.338 0 00-.425-.204.327.327 0 00-.208.417c.45 1.284.736 2.487.865 3.583L16.328.788l.075.006a.335.335 0 00.372-.289.319.319 0 00-.073-.243.323.323 0 00-.221-.121 11.46 11.46 0 00-.696-.056.34.34 0 00-.16.037.335.335 0 00-.4.048.323.323 0 000 .463l4.473 4.382c.026.928-.077 1.76-.31 2.479L12.75.99a.324.324 0 00-.001-.247.35.35 0 00-.439-.177c-.224.092-.442.2-.646.315a.329.329 0 00-.167.285c0 .06.016.115.047.164.06.099.17.16.287.16.06 0 .12-.012.171-.042.056-.032.115-.062.174-.092l6.944 6.802a3.99 3.99 0 01-.852 1.168 3.736 3.736 0 01-.441.347l-7.143-6.998a3.8 3.8 0 01.354-.456.33.33 0 00-.026-.466.353.353 0 00-.476.03c-.16.177-.308.37-.438.57a.34.34 0 00-.045.134c-.006.005-.015.008-.021.014a.323.323 0 000 .463l7.195 7.049c-.68.308-1.486.453-2.396.435L9.95 5.666c-.026-.164-.168-.297-.34-.28a.33.33 0 00-.321.339c.01.225.027.455.053.688a.33.33 0 00.331.289h.04a.332.332 0 00.222-.123l3.865 3.786c-.9-.125-1.88-.386-2.927-.784l-.045-.115a.344.344 0 00-.432-.19.35.35 0 00-.123.084c-3.399-1.219-6.182-1.034-7.87.54C1.234 10.99.68 12.687.745 14.79a14.176 14.176 0 00.474 3.112.329.329 0 00-.128-.077 24.976 24.976 0 01-.313-.102.338.338 0 00-.426.204.327.327 0 00.209.416c.108.037.216.072.323.106a.335.335 0 00.422-.21c.002-.006 0-.011.002-.017.113.402.237.81.384 1.229a.335.335 0 00.425.203.327.327 0 00.208-.416c-.05-.141-.092-.279-.137-.418.006.003.011.008.018.01l.023.003c.221.056.442.105.65.15a.335.335 0 00.398-.252.318.318 0 00-.047-.245.339.339 0 00-.211-.145 19.544 19.544 0 01-.646-.147.338.338 0 00-.345.116 15.417 15.417 0 01-.556-2.643l2.97 2.908-.107-.01-.004.016-.003-.017a.339.339 0 00-.375.286c-.004.013-.004.025-.004.042 0 .164.128.302.295.324.234.03.465.053.69.07h.026a.327.327 0 00.169-.052.336.336 0 00.193.068.337.337 0 00.236-.096.323.323 0 000-.464l-4.153-4.068c-.02-.92.09-1.747.326-2.463l6.335 6.206a.321.321 0 00-.073.324c.043.134.17.223.318.223.036 0 .07-.003.103-.016l.02-.007c.228-.075.446-.16.647-.253a.324.324 0 00.16-.436.344.344 0 00-.445-.157c-.025.012-.052.021-.078.033l-6.716-6.579c.225-.451.51-.846.862-1.174.134-.125.28-.237.43-.342l7.04 6.896c-.021.016-.045.03-.062.051-.13.157-.275.305-.428.443a.315.315 0 00-.11.242c0 .079.03.157.086.22a.343.343 0 00.472.026l.03-.03c.17-.154.328-.318.472-.491a.327.327 0 00.067-.204.323.323 0 00.131-.54L3.89 9.688c.673-.315 1.469-.469 2.364-.467l4.966 4.865v.006a.328.328 0 00.331.321h.004c.18 0 .331-.144.335-.321V14l-.002-.048v-.007a7.162 7.162 0 00-.022-.545.33.33 0 00-.358-.305.347.347 0 00-.231.115l-.002.003-4.008-3.927c.947.116 1.983.383 3.092.805l.088.224a.336.336 0 00.314.216.29.29 0 00.114-.023.329.329 0 00.18-.16c1.31.46 2.522.71 3.612.751.009 0 .017.005.026.005l.013-.003c1.663.055 3.039-.378 4.025-1.299a4.68 4.68 0 001.09-1.573l.014-.03c.391-.913.565-2.016.524-3.263a.311.311 0 00-.003-.126c-.044-.996-.225-2.082-.543-3.24l.161.052a.352.352 0 00.109.017z"/></g></svg>
